icons/rtl.svg

<svg width="14" height="12" xmlns="http://www.w3.org/2000/svg"><path d="M6.00742454,2 L6.00742454,11 C6.00742454,11.5522847 5.55915527,12 5.00618711,12 C4.45321895,12 4.00494969,11.5522847 4.00494969,11 L4.00494969,6 L3.00371227,6 C1.34480779,6 0,4.65685425 0,3 C0,1.34314575 1.34480779,0 3.00371227,0 L10.0123742,0 C10.5653424,0 11.0136116,0.44771525 11.0136116,1 C11.0136116,1.55228475 10.5653424,2 10.0123742,2 L9.0111368,2 L9.0111368,11 C9.0111368,11.5522847 8.56286754,12 8.00989938,12 C7.45693122,12 7.00866196,11.5522847 7.00866196,11 L7.00866196,2 L6.00742454,2 Z M12.2907808,8.8765587 L13.7067443,10.2907723 C14.0977519,10.6812966 14.0977519,11.3144615 13.7067443,11.7049858 C13.3157368,12.0955101 12.6817883,12.0955101 12.2907808,11.7049858 L10.1668355,9.58366548 C9.77582796,9.19314119 9.77582796,8.55997621 10.1668355,8.16945192 L12.2907808,6.04813158 C12.6817883,5.65760729 13.3157368,5.65760729 13.7067443,6.04813158 C14.0977519,6.43865587 14.0977519,7.07182085 13.7067443,7.46234514 L12.2907808,8.8765587 L12.2907808,8.8765587 Z M4.00494969,2 L3.00371227,2 C2.45074411,2 2.00247485,2.44771525 2.00247485,3 C2.00247485,3.55228475 2.45074411,4 3.00371227,4 L4.00494969,4 L4.00494969,2 Z"/></svg>

<svg width="14" height="12" xmlns="http://www.w3.org/2000/svg" fill="currentColor"><path d="M6.007 2v9a1 1 0 0 1-2.002 0V6H3.004A3.002 3.002 0 0 1 0 3c0-1.657 1.345-3 3.004-3h7.008a1 1 0 1 1 0 2h-1v9a1 1 0 0 1-2.003 0V2H6.007Zm6.284 6.877 1.416 1.414a1 1 0 0 1 0 1.414c-.391.39-1.025.39-1.416 0l-2.124-2.121a1 1 0 0 1 0-1.415l2.124-2.12a1.002 1.002 0 0 1 1.416 0 1 1 0 0 1 0 1.413L12.29 8.877ZM4.005 2H3.004a1 1 0 1 0 0 2h1V2Z"/></svg>
